X: 38282
T: St. Kilda Wedding
R: reel
M: 4/4
K: Amajor
|:A2 Ac Acec|B2 cA F2 EF|A2 cB Acec|1 f2 fe fefa:|2 f2 fe fefg||
a2 ab aeea|fgag f2 ed|cefg agfa|ecac BdcB|
Aaag aeea|fgag f2 ed|cefg agfa|ecac BdcB||

